app/assets/v2/images/avatar/HairStyle/mohawk-8C3B28.svg

<svg id="Layer_18" data-name="Layer 18" xmlns="http://www.w3.org/2000/svg" viewBox="0 0 899.21 1415.66"><defs><style>.cls-1{fill:#8C3B28;}.cls-2{fill:#ec2329;}</style></defs><title>mohawk</title><path class="cls-1" d="M490.3833,372.3485C429.5287,382.3347,403.7,325.83,403.7,325.83L421.2029,199.6,438.7058,73.37l56.9268,114.0163,56.9268,114.0164S551.2379,362.3624,490.3833,372.3485Z"/><path class="cls-2" d="M465.8521,374.7687c-61.6685,0-78.0063-59.9417-78.0063-59.9417l37.7126-121.73,37.7126-121.73,37.7126,121.73,37.7126,121.73S527.5207,374.7687,465.8521,374.7687Z"/><path class="cls-1" d="M426.4663,370.2589c-59.5634-15.975-59.8157-78.1029-59.8157-78.1029L434.61,184.3509,502.5687,76.5457,507.46,203.89l4.8914,127.3439S486.03,386.234,426.4663,370.2589Z"/></svg>

<svg id="Layer_18" data-name="Layer 18" xmlns="http://www.w3.org/2000/svg" viewBox="0 0 899.21 1415.66"><defs><style>.cls-1{fill:#8c3b28}</style></defs><path class="cls-1" d="M490.383 372.349C429.53 382.334 403.7 325.83 403.7 325.83l17.503-126.23 17.503-126.23 56.927 114.016 56.926 114.017s-1.321 60.96-62.176 70.945z"/><path d="M465.852 374.769c-61.668 0-78.006-59.942-78.006-59.942l37.712-121.73 37.713-121.73 37.713 121.73 37.712 121.73s-11.175 59.942-72.844 59.942z" fill="#ec2329"/><path class="cls-1" d="M426.466 370.259c-59.563-15.975-59.815-78.103-59.815-78.103l67.959-107.805 67.959-107.805 4.891 127.344 4.891 127.344s-26.321 55-85.885 39.025z"/></svg>
